X:328
T:Honourable Mr. Ramsay Maule
R:Strathspey
C:Neil Gow
B:The Athole Collection
M:C
L:1/8
K:E Minor
e|B<E B>A F<D D>d|B<E B>A B<E B>A|B<dA<d F<D D>d|B<E B>A G<E E>e|
B<E B>A F<D D>d|B<E B>A B<de<f|d>BA>G F<D D>d|B<E B>A G<EE||
g|eG d<DA>F|eg eg|e>fg>e d<D A>F|B<E B>A B<E E>g|
eg d>D AG/F/|e>Be>g Be/f/ g>e|d>fB>d F>D AG/F/|B<E B>A G<EE||
